src/actions/symbolic/view-app-grid-symbolic.svg

<?xml version="1.0" encoding="UTF-8" standalone="no"?>
<svg
   width="64"
   height="64"
   version="1.1"
   id="svg2"
   sodipodi:docname="view-app-grid-symbolic.svg"
   inkscape:version="1.3.2 (091e20ef0f, 2023-11-25)"
   xmlns:inkscape="http://www.inkscape.org/namespaces/inkscape"
   xmlns:sodipodi="http://sodipodi.sourceforge.net/DTD/sodipodi-0.dtd"
   xmlns="http://www.w3.org/2000/svg"
   xmlns:svg="http://www.w3.org/2000/svg">
  <sodipodi:namedview
     id="namedview2"
     pagecolor="#ffffff"
     bordercolor="#111111"
     borderopacity="1"
     inkscape:showpageshadow="0"
     inkscape:pageopacity="0"
     inkscape:pagecheckerboard="1"
     inkscape:deskcolor="#d1d1d1"
     inkscape:zoom="12.546875"
     inkscape:cx="32"
     inkscape:cy="32"
     inkscape:window-width="1920"
     inkscape:window-height="1011"
     inkscape:window-x="0"
     inkscape:window-y="0"
     inkscape:window-maximized="1"
     inkscape:current-layer="svg2" />
  <defs
     id="defs2">
    <linearGradient
       id="linearGradient1040"
       x1="7.9373"
       x2="7.9373"
       y1="15.081"
       y2="1.852"
       gradientTransform="matrix(3.7796,0,0,3.7796,-9.9945068e-4,0.03040051)"
       gradientUnits="userSpaceOnUse">
      <stop
         stop-color="#363636"
         offset="0"
         id="stop1" />
      <stop
         stop-color="#6c6c6c"
         offset="1"
         id="stop2" />
    </linearGradient>
  </defs>
  <path
     id="rect2-7"
     style="fill:#373737;fill-opacity:1"
     d="M 17.001953 3.9980469 C 9.7988524 3.9980469 3.9980469 9.7988524 3.9980469 17.001953 L 3.9980469 46.998047 C 3.9980469 54.201148 9.7988524 60.001953 17.001953 60.001953 L 46.998047 60.001953 C 54.201148 60.001953 60.001953 54.201148 60.001953 46.998047 L 60.001953 17.001953 C 60.001953 9.7988524 54.201148 3.9980469 46.998047 3.9980469 L 17.001953 3.9980469 z M 17.066406 7.7519531 L 46.933594 7.7519531 C 52.093836 7.7519531 56.248047 11.906164 56.248047 17.066406 L 56.248047 46.933594 C 56.248047 52.093836 52.093836 56.248047 46.933594 56.248047 L 17.066406 56.248047 C 11.906164 56.248047 7.7519531 52.093836 7.7519531 46.933594 L 7.7519531 17.066406 C 7.7519531 11.906164 11.906164 7.7519531 17.066406 7.7519531 z " />
  <g
     id="g26"
     transform="rotate(90,32.000332,32.023676)"
     style="fill:#373737;fill-opacity:1">
    <rect
       style="fill:#373737;stroke-width:2;stroke-linecap:round;stroke-linejoin:bevel;fill-opacity:1"
       id="rect4"
       width="12.02217"
       height="11.75131"
       x="10.567806"
       y="26.124344"
       ry="2.1656289" />
    <rect
       style="fill:#373737;stroke-width:2;stroke-linecap:round;stroke-linejoin:bevel;fill-opacity:1"
       id="rect4-0"
       width="12.02217"
       height="11.75131"
       x="25.988916"
       y="26.148022"
       ry="2.1656289" />
    <rect
       style="fill:#373737;stroke-width:2;stroke-linecap:round;stroke-linejoin:bevel;fill-opacity:1"
       id="rect4-0-3-6"
       width="12.02217"
       height="11.75131"
       x="25.988916"
       y="41.804512"
       ry="2.1656289" />
    <rect
       style="fill:#373737;stroke-width:2;stroke-linecap:round;stroke-linejoin:bevel;fill-opacity:1"
       id="rect4-0-3-6-0-6-2-6"
       width="12.02217"
       height="11.75131"
       x="41.486305"
       y="26.124348"
       ry="2.1656289" />
    <rect
       style="fill:#373737;stroke-width:2;stroke-linecap:round;stroke-linejoin:bevel;fill-opacity:1"
       id="rect4-9"
       width="12.02217"
       height="11.75131"
       x="25.988914"
       y="10.491529"
       ry="2.1656289" />
    <path
       id="rect2-5-9"
       style="display:inline;fill:#373737;fill-opacity:1"
       d="m 43.628906,41.757812 c -1.199757,0 -2.164062,0.964306 -2.164062,2.164063 v 7.421875 c 0,1.199757 0.964305,2.164062 2.164062,2.164062 H 46.9375 c 3.493239,0 6.325084,-2.700027 6.548828,-6.134765 v -3.451172 c 0,-1.199757 -0.966258,-2.164063 -2.166016,-2.164063 z" />
    <path
       id="rect2-5-9-5"
       style="display:inline;fill:#373737;fill-opacity:1"
       d="m 12.679688,41.804688 c -1.199758,0 -2.166016,0.966258 -2.166016,2.166015 v 3.402344 c 0.223744,3.434738 3.055589,6.134765 6.548828,6.134765 h 3.761719 c 0.980611,-0.207349 1.710937,-1.073052 1.710937,-2.117187 v -7.419922 c 0,-1.199757 -0.964305,-2.166015 -2.164062,-2.166015 z" />
    <path
       id="rect2-5-9-2"
       style="display:inline;fill:#373737;fill-opacity:1"
       d="m 17.0625,10.492188 c -3.640302,0 -6.570312,2.93001 -6.570312,6.570312 v 3.015625 c 0,1.199757 0.964305,2.164063 2.164062,2.164063 h 7.691406 c 1.199757,0 2.166016,-0.964306 2.166016,-2.164063 V 12.65625 c 0,-1.199757 -0.966259,-2.164062 -2.166016,-2.164062 z" />
    <path
       id="rect2-5-9-7"
       style="display:inline;fill:#373737;fill-opacity:1"
       d="m 43.652344,10.492188 c -1.199757,0 -2.166016,0.964305 -2.166016,2.164062 v 7.421875 c 0,1.199757 0.966259,2.164063 2.166016,2.164063 h 7.691406 c 1.199757,0 2.164062,-0.964306 2.164062,-2.164063 V 17.0625 c 0,-3.640302 -2.93001,-6.570312 -6.570312,-6.570312 z" />
  </g>
</svg>

<?xml version="1.0" encoding="UTF-8"?>
<svg id="svg2" width="64" height="64" version="1.1" xmlns="http://www.w3.org/2000/svg">
 <path id="rect2-7" d="m17.002 3.998c-7.2031 0-13.004 5.8008-13.004 13.004v29.996c0 7.2031 5.8008 13.004 13.004 13.004h29.996c7.2031 0 13.004-5.8008 13.004-13.004v-29.996c0-7.2031-5.8008-13.004-13.004-13.004h-29.996zm0.064453 3.7539h29.867c5.1602 0 9.3145 4.1542 9.3145 9.3145v29.867c0 5.1602-4.1542 9.3145-9.3145 9.3145h-29.867c-5.1602 0-9.3145-4.1542-9.3145-9.3145v-29.867c0-5.1602 4.1542-9.3145 9.3145-9.3145z" fill="#373737"/>
 <g id="g26" transform="rotate(90 32 32.024)" fill="#373737">
  <rect id="rect4" x="10.568" y="26.124" width="12.022" height="11.751" ry="2.1656" stroke-linecap="round" stroke-linejoin="bevel" stroke-width="2"/>
  <rect id="rect4-0" x="25.989" y="26.148" width="12.022" height="11.751" ry="2.1656" stroke-linecap="round" stroke-linejoin="bevel" stroke-width="2"/>
  <rect id="rect4-0-3-6" x="25.989" y="41.805" width="12.022" height="11.751" ry="2.1656" stroke-linecap="round" stroke-linejoin="bevel" stroke-width="2"/>
  <rect id="rect4-0-3-6-0-6-2-6" x="41.486" y="26.124" width="12.022" height="11.751" ry="2.1656" stroke-linecap="round" stroke-linejoin="bevel" stroke-width="2"/>
  <rect id="rect4-9" x="25.989" y="10.492" width="12.022" height="11.751" ry="2.1656" stroke-linecap="round" stroke-linejoin="bevel" stroke-width="2"/>
  <path id="rect2-5-9" d="m43.629 41.758c-1.1998 0-2.1641 0.96431-2.1641 2.1641v7.4219c0 1.1998 0.9643 2.1641 2.1641 2.1641h3.3086c3.4932 0 6.3251-2.7 6.5488-6.1348v-3.4512c0-1.1998-0.96626-2.1641-2.166-2.1641z"/>
  <path id="rect2-5-9-5" d="m12.68 41.805c-1.1998 0-2.166 0.96626-2.166 2.166v3.4023c0.22374 3.4347 3.0556 6.1348 6.5488 6.1348h3.7617c0.98061-0.20735 1.7109-1.0731 1.7109-2.1172v-7.4199c0-1.1998-0.9643-2.166-2.1641-2.166z"/>
  <path id="rect2-5-9-2" d="m17.062 10.492c-3.6403 0-6.5703 2.93-6.5703 6.5703v3.0156c0 1.1998 0.9643 2.1641 2.1641 2.1641h7.6914c1.1998 0 2.166-0.96431 2.166-2.1641v-7.4219c0-1.1998-0.96626-2.1641-2.166-2.1641z"/>
  <path id="rect2-5-9-7" d="m43.652 10.492c-1.1998 0-2.166 0.9643-2.166 2.1641v7.4219c0 1.1998 0.96626 2.1641 2.166 2.1641h7.6914c1.1998 0 2.1641-0.96431 2.1641-2.1641v-3.0156c0-3.6403-2.93-6.5703-6.5703-6.5703z"/>
 </g>
</svg>
